seeds/icons/ac.svg

<?xml version="1.0" encoding="utf-8"?><!-- Uploaded to: SVG Repo, www.svgrepo.com, Generator: SVG Repo Mixer Tools -->
<svg width="1.5rem" height="1.5rem" viewBox="0 0 45 45" fill="none" xmlns="http://www.w3.org/2000/svg">
<path d="M23.0261 7.548V11.578L27.0521 9.253L28.0521 10.986L23.0261 13.887V20.815L29.0261 17.351V11.548H31.0261V16.196L34.5171 14.182L35.5171 15.914L32.0261 17.929L36.0521 20.253L35.0521 21.986L30.0261 19.083L24.0261 22.547L30.0271 26.012L35.0521 23.11L36.0521 24.842L32.0261 27.166L35.5171 29.182L34.5171 30.914L31.0261 28.899V33.548H29.0261V27.744L23.0261 24.279V31.208L28.0521 34.11L27.0521 35.842L23.0261 33.517V37.548H21.0261V33.517L17.0001 35.842L16.0001 34.11L21.0261 31.208V24.279L15.0261 27.743V33.548H13.0261V28.898L9.53606 30.914L8.53606 29.182L12.0251 27.166L8.00006 24.842L9.00006 23.11L14.0251 26.011L20.0251 22.547L14.0261 19.083L9.00006 21.986L8.00006 20.253L12.0261 17.929L8.53606 15.914L9.53606 14.182L13.0261 16.196V11.548H15.0261V17.351L21.0261 20.815V13.887L16.0001 10.986L17.0001 9.253L21.0261 11.578V7.548H23.0261Z" fill="#3C3C3C"/>
</svg>

<svg xmlns="http://www.w3.org/2000/svg" width="1.5rem" height="1.5rem" fill="none" viewBox="0 0 45 45"><path fill="#3C3C3C" d="M23.026 7.548v4.03l4.026-2.325 1 1.733-5.026 2.901v6.928l6-3.464v-5.803h2v4.648l3.491-2.014 1 1.732-3.49 2.015 4.025 2.324-1 1.733-5.026-2.903-6 3.464 6.001 3.465 5.025-2.902 1 1.732-4.026 2.324 3.491 2.016-1 1.732-3.49-2.015v4.649h-2v-5.804l-6-3.465v6.929l5.025 2.902-1 1.732-4.026-2.325v4.031h-2v-4.031L17 35.842l-1-1.732 5.026-2.902v-6.929l-6 3.464v5.805h-2v-4.65l-3.49 2.016-1-1.732 3.49-2.016L8 24.842l1-1.732 5.025 2.901 6-3.464-5.999-3.464L9 21.986l-1-1.733 4.026-2.324-3.49-2.015 1-1.732 3.49 2.014v-4.648h2v5.803l6 3.464v-6.928L16 10.986l1-1.733 4.026 2.325v-4.03z"/></svg>
